(G-CODE GENERATED BY FLATCAM v8.994 - www.flatcam.org - Version Date: 2020/11/7)

(Name: EMG-Routing_2 - Copper Bottom.gbr_iso_combined_cnc)
(Type: G-code from Geometry)
(Units: MM)

(Created on Wednesday, 08 October 2025 at 13:57)

(This preprocessor is the default preprocessor used by FlatCAM.)
(It is made to work with MACH3 compatible motion controllers.)

(TOOL DIAMETER: 0.31 mm)
(Feedrate_XY: 170.0 mm/min)
(Feedrate_Z: 170.0 mm/min)
(Feedrate rapids 0.0 mm/min)

(Z_Cut: 0.0 mm)
(DepthPerCut: 0.6 mm <=>0 passes)
(Z_Move: 2.0 mm)
(Z Start: None mm)
(Z End: 35.0 mm)
(X,Y End: 0.0000, 0.0000 mm)
(Steps per circle: 64)
(Preprocessor Geometry: default)

(X range:   -0.5109 ...   49.5329  mm)
(Y range:  -39.3729 ...    0.4349  mm)

(Spindle Speed: 11000.0 RPM)
G21
G90
G94

G01 F170.00

M5
G00 Z2.0000
G00 X0.0000 Y0.0000
T2
M6    
(MSG, Change to Tool Dia = 0.3100)
M0
G00 Z2.0000

M03 S11000.0
G01 F170.00
G00 Z2.0000
G00 Z2.0000
G00 Z2.0000
G00 Z2.0000
G00 Z2.0000
G00 Z2.0000
G00 Z2.0000
M05
G00 Z2.0000
G00 Z35.00
G00 X0.0 Y0.0


