(G-CODE GENERATED BY FLATCAM v8.994 - www.flatcam.org - Version Date: 2020/11/7)

(Name: EMG-Routing_2 - Board Outline.gbr_cutout_cnc)
(Type: G-code from Geometry)
(Units: MM)

(Created on Wednesday, 08 October 2025 at 14:44)

(This preprocessor is the default preprocessor used by FlatCAM.)
(It is made to work with MACH3 compatible motion controllers.)

(TOOL DIAMETER: 1.0 mm)
(Feedrate_XY: 170.0 mm/min)
(Feedrate_Z: 170.0 mm/min)
(Feedrate rapids 1500.0 mm/min)

(Z_Cut: -1.65 mm)
(DepthPerCut: 0.6 mm <=>3 passes)
(Z_Move: 2.0 mm)
(Z Start: None mm)
(Z End: 35.0 mm)
(X,Y End: 0.0000, 0.0000 mm)
(Steps per circle: 64)
(Preprocessor Geometry: default)

(X range:   -0.8545 ...   49.8765  mm)
(Y range:  -39.7165 ...    0.7785  mm)

(Spindle Speed: 0.0 RPM)
G21
G90
G94

G01 F170.00

M5
G00 Z2.0000
G00 X0.0000 Y0.0000
T1
M6    
(MSG, Change to Tool Dia = 1.0000)
M0
G00 Z2.0000

M03
G01 F170.00
G00 X-0.8545 Y-18.6090
G01 F170.00
G01 Z-0.6000
G01 F170.00
G01 X-0.8545 Y0.1780
G01 X-0.8538 Y0.2075
G01 X-0.8480 Y0.2661
G01 X-0.8365 Y0.3239
G01 X-0.8194 Y0.3803
G01 X-0.7968 Y0.4348
G01 X-0.7691 Y0.4867
G01 X-0.7363 Y0.5357
G01 X-0.6990 Y0.5813
G01 X-0.6573 Y0.6229
G01 X-0.6117 Y0.6603
G01 X-0.5627 Y0.6931
G01 X-0.5107 Y0.7209
G01 X-0.4563 Y0.7434
G01 X-0.3999 Y0.7605
G01 X-0.3421 Y0.7720
G01 X-0.2835 Y0.7778
G01 X-0.2540 Y0.7785
G01 X23.8510 Y0.7785
G00 X23.8510 Y0.7785
G01 F170.00
G01 Z-1.2000
G01 F170.00
G01 X-0.2540 Y0.7785
G01 X-0.2835 Y0.7778
G01 X-0.3421 Y0.7720
G01 X-0.3999 Y0.7605
G01 X-0.4563 Y0.7434
G01 X-0.5107 Y0.7209
G01 X-0.5627 Y0.6931
G01 X-0.6117 Y0.6603
G01 X-0.6573 Y0.6229
G01 X-0.6990 Y0.5813
G01 X-0.7363 Y0.5357
G01 X-0.7691 Y0.4867
G01 X-0.7968 Y0.4348
G01 X-0.8194 Y0.3803
G01 X-0.8365 Y0.3239
G01 X-0.8480 Y0.2661
G01 X-0.8538 Y0.2075
G01 X-0.8545 Y0.1780
G01 X-0.8545 Y-18.6090
G00 X-0.8545 Y-18.6090
G01 F170.00
G01 Z-1.6500
G01 F170.00
G01 X-0.8545 Y0.1780
G01 X-0.8538 Y0.2075
G01 X-0.8480 Y0.2661
G01 X-0.8365 Y0.3239
G01 X-0.8194 Y0.3803
G01 X-0.7968 Y0.4348
G01 X-0.7691 Y0.4867
G01 X-0.7363 Y0.5357
G01 X-0.6990 Y0.5813
G01 X-0.6573 Y0.6229
G01 X-0.6117 Y0.6603
G01 X-0.5627 Y0.6931
G01 X-0.5107 Y0.7209
G01 X-0.4563 Y0.7434
G01 X-0.3999 Y0.7605
G01 X-0.3421 Y0.7720
G01 X-0.2835 Y0.7778
G01 X-0.2540 Y0.7785
G01 X23.8510 Y0.7785
G00 Z2.0000
G00 X25.3710 Y0.7785
G01 F170.00
G01 Z-0.6000
G01 F170.00
G01 X49.2760 Y0.7785
G01 X49.3055 Y0.7778
G01 X49.3641 Y0.7720
G01 X49.4219 Y0.7605
G01 X49.4783 Y0.7434
G01 X49.5328 Y0.7208
G01 X49.5847 Y0.6931
G01 X49.6337 Y0.6603
G01 X49.6793 Y0.6229
G01 X49.7210 Y0.5813
G01 X49.7583 Y0.5357
G01 X49.7911 Y0.4867
G01 X49.8188 Y0.4348
G01 X49.8414 Y0.3803
G01 X49.8585 Y0.3239
G01 X49.8700 Y0.2661
G01 X49.8758 Y0.2075
G01 X49.8765 Y0.1780
G01 X49.8765 Y-18.6090
G00 X49.8765 Y-18.6090
G01 F170.00
G01 Z-1.2000
G01 F170.00
G01 X49.8765 Y0.1780
G01 X49.8758 Y0.2075
G01 X49.8700 Y0.2661
G01 X49.8585 Y0.3239
G01 X49.8414 Y0.3803
G01 X49.8188 Y0.4348
G01 X49.7911 Y0.4867
G01 X49.7583 Y0.5357
G01 X49.7210 Y0.5813
G01 X49.6793 Y0.6229
G01 X49.6337 Y0.6603
G01 X49.5847 Y0.6931
G01 X49.5328 Y0.7208
G01 X49.4783 Y0.7434
G01 X49.4219 Y0.7605
G01 X49.3641 Y0.7720
G01 X49.3055 Y0.7778
G01 X49.2760 Y0.7785
G01 X25.3710 Y0.7785
G00 X25.3710 Y0.7785
G01 F170.00
G01 Z-1.6500
G01 F170.00
G01 X49.2760 Y0.7785
G01 X49.3055 Y0.7778
G01 X49.3641 Y0.7720
G01 X49.4219 Y0.7605
G01 X49.4783 Y0.7434
G01 X49.5328 Y0.7208
G01 X49.5847 Y0.6931
G01 X49.6337 Y0.6603
G01 X49.6793 Y0.6229
G01 X49.7210 Y0.5813
G01 X49.7583 Y0.5357
G01 X49.7911 Y0.4867
G01 X49.8188 Y0.4348
G01 X49.8414 Y0.3803
G01 X49.8585 Y0.3239
G01 X49.8700 Y0.2661
G01 X49.8758 Y0.2075
G01 X49.8765 Y0.1780
G01 X49.8765 Y-18.6090
G00 Z2.0000
G00 X49.8765 Y-20.1290
G01 F170.00
G01 Z-0.6000
G01 F170.00
G01 X49.8765 Y-39.1160
G01 X49.8758 Y-39.1455
G01 X49.8700 Y-39.2041
G01 X49.8585 Y-39.2619
G01 X49.8414 Y-39.3183
G01 X49.8188 Y-39.3728
G01 X49.7911 Y-39.4247
G01 X49.7583 Y-39.4737
G01 X49.7210 Y-39.5193
G01 X49.6793 Y-39.5609
G01 X49.6337 Y-39.5983
G01 X49.5847 Y-39.6311
G01 X49.5327 Y-39.6589
G01 X49.4783 Y-39.6814
G01 X49.4219 Y-39.6985
G01 X49.3641 Y-39.7100
G01 X49.3055 Y-39.7158
G01 X49.2760 Y-39.7165
G01 X25.3710 Y-39.7165
G00 X25.3710 Y-39.7165
G01 F170.00
G01 Z-1.2000
G01 F170.00
G01 X49.2760 Y-39.7165
G01 X49.3055 Y-39.7158
G01 X49.3641 Y-39.7100
G01 X49.4219 Y-39.6985
G01 X49.4783 Y-39.6814
G01 X49.5327 Y-39.6589
G01 X49.5847 Y-39.6311
G01 X49.6337 Y-39.5983
G01 X49.6793 Y-39.5609
G01 X49.7210 Y-39.5193
G01 X49.7583 Y-39.4737
G01 X49.7911 Y-39.4247
G01 X49.8188 Y-39.3728
G01 X49.8414 Y-39.3183
G01 X49.8585 Y-39.2619
G01 X49.8700 Y-39.2041
G01 X49.8758 Y-39.1455
G01 X49.8765 Y-39.1160
G01 X49.8765 Y-20.1290
G00 X49.8765 Y-20.1290
G01 F170.00
G01 Z-1.6500
G01 F170.00
G01 X49.8765 Y-39.1160
G01 X49.8758 Y-39.1455
G01 X49.8700 Y-39.2041
G01 X49.8585 Y-39.2619
G01 X49.8414 Y-39.3183
G01 X49.8188 Y-39.3728
G01 X49.7911 Y-39.4247
G01 X49.7583 Y-39.4737
G01 X49.7210 Y-39.5193
G01 X49.6793 Y-39.5609
G01 X49.6337 Y-39.5983
G01 X49.5847 Y-39.6311
G01 X49.5327 Y-39.6589
G01 X49.4783 Y-39.6814
G01 X49.4219 Y-39.6985
G01 X49.3641 Y-39.7100
G01 X49.3055 Y-39.7158
G01 X49.2760 Y-39.7165
G01 X25.3710 Y-39.7165
G00 Z2.0000
G00 X23.8510 Y-39.7165
G01 F170.00
G01 Z-0.6000
G01 F170.00
G01 X-0.2540 Y-39.7165
G01 X-0.2835 Y-39.7158
G01 X-0.3421 Y-39.7100
G01 X-0.3999 Y-39.6985
G01 X-0.4563 Y-39.6814
G01 X-0.5107 Y-39.6589
G01 X-0.5627 Y-39.6311
G01 X-0.6117 Y-39.5983
G01 X-0.6573 Y-39.5609
G01 X-0.6990 Y-39.5193
G01 X-0.7363 Y-39.4737
G01 X-0.7691 Y-39.4247
G01 X-0.7968 Y-39.3728
G01 X-0.8194 Y-39.3183
G01 X-0.8365 Y-39.2619
G01 X-0.8480 Y-39.2041
G01 X-0.8538 Y-39.1455
G01 X-0.8545 Y-39.1160
G01 X-0.8545 Y-20.1290
G00 X-0.8545 Y-20.1290
G01 F170.00
G01 Z-1.2000
G01 F170.00
G01 X-0.8545 Y-39.1160
G01 X-0.8538 Y-39.1455
G01 X-0.8480 Y-39.2041
G01 X-0.8365 Y-39.2619
G01 X-0.8194 Y-39.3183
G01 X-0.7968 Y-39.3728
G01 X-0.7691 Y-39.4247
G01 X-0.7363 Y-39.4737
G01 X-0.6990 Y-39.5193
G01 X-0.6573 Y-39.5609
G01 X-0.6117 Y-39.5983
G01 X-0.5627 Y-39.6311
G01 X-0.5107 Y-39.6589
G01 X-0.4563 Y-39.6814
G01 X-0.3999 Y-39.6985
G01 X-0.3421 Y-39.7100
G01 X-0.2835 Y-39.7158
G01 X-0.2540 Y-39.7165
G01 X23.8510 Y-39.7165
G00 X23.8510 Y-39.7165
G01 F170.00
G01 Z-1.6500
G01 F170.00
G01 X-0.2540 Y-39.7165
G01 X-0.2835 Y-39.7158
G01 X-0.3421 Y-39.7100
G01 X-0.3999 Y-39.6985
G01 X-0.4563 Y-39.6814
G01 X-0.5107 Y-39.6589
G01 X-0.5627 Y-39.6311
G01 X-0.6117 Y-39.5983
G01 X-0.6573 Y-39.5609
G01 X-0.6990 Y-39.5193
G01 X-0.7363 Y-39.4737
G01 X-0.7691 Y-39.4247
G01 X-0.7968 Y-39.3728
G01 X-0.8194 Y-39.3183
G01 X-0.8365 Y-39.2619
G01 X-0.8480 Y-39.2041
G01 X-0.8538 Y-39.1455
G01 X-0.8545 Y-39.1160
G01 X-0.8545 Y-20.1290
G00 Z2.0000
M05
G00 Z2.0000
G00 Z35.00
G00 X0.0 Y0.0


