(G-CODE GENERATED BY FLATCAM v8.994 - www.flatcam.org - Version Date: 2020/11/7)

(Name: EMG-Routing_2 - Copper Top-Copper Bottom.drl_cnc)
(Type: G-code from Geometry)
(Units: MM)

(Created on Wednesday, 08 October 2025 at 14:45)

(This preprocessor is the default preprocessor used by FlatCAM.)
(It is made to work with MACH3 compatible motion controllers.)


(TOOLS DIAMETER: )
(Tool: 1 -> Dia: 0.6)

(FEEDRATE Z: )
(Tool: 1 -> Feedrate: 170.0)

(FEEDRATE RAPIDS: )
(Tool: 1 -> Feedrate Rapids: 1500)

(Z_CUT: )
(Tool: 1 -> Z_Cut: -1.65)

(Tools Offset: )
(Tool: 1 -> Offset Z: 0.0)

(DEPTH_PER_CUT: )
(Tool: 1 -> DeptPerCut: 0.6)

(Z_MOVE: )
(Tool: 1 -> Z_Move: 2)

(Z Toolchange: 15 mm)
(X,Y Toolchange: 0.0000, 0.0000 mm)
(Z Start: None mm)
(Z End: 35.0 mm)
(X,Y End: None mm)
(Steps per circle: 64)
(Preprocessor Excellon: default)

(X range:    5.2903 ...   41.4649  mm)
(Y range:  -38.4387 ...   -5.0362  mm)

(Spindle Speed: 11000 RPM)
G21
G90
G94

G01 F170.00

M5
G00 Z15.0000
T1
G00 X0.0000 Y0.0000                
M6
(MSG, Change to Tool Dia = 0.6000 ||| Total drills for tool T1 = 24)
M0
G00 Z15.0000

G01 F170.00
M03 S11000
G00 X35.0664 Y-23.3776
G01 Z-0.6000
G01 Z0
G00 Z2.0000
G01 Z-1.2000
G01 Z0
G00 Z2.0000
G01 Z-1.6500
G01 Z0
G00 Z2.0000
G00 X41.1649 Y-22.8694
G01 Z-0.6000
G01 Z0
G00 Z2.0000
G01 Z-1.2000
G01 Z0
G00 Z2.0000
G01 Z-1.6500
G01 Z0
G00 Z2.0000
G00 X40.6567 Y-30.4925
G01 Z-0.6000
G01 Z0
G00 Z2.0000
G01 Z-1.2000
G01 Z0
G00 Z2.0000
G01 Z-1.6500
G01 Z0
G00 Z2.0000
G00 X33.7959 Y-29.7302
G01 Z-0.6000
G01 Z0
G00 Z2.0000
G01 Z-1.2000
G01 Z0
G00 Z2.0000
G01 Z-1.6500
G01 Z0
G00 Z2.0000
G00 X32.7795 Y-27.6974
G01 Z-0.6000
G01 Z0
G00 Z2.0000
G01 Z-1.2000
G01 Z0
G00 Z2.0000
G01 Z-1.6500
G01 Z0
G00 Z2.0000
G00 X26.9351 Y-32.7795
G01 Z-0.6000
G01 Z0
G00 Z2.0000
G01 Z-1.2000
G01 Z0
G00 Z2.0000
G01 Z-1.6500
G01 Z0
G00 Z2.0000
G00 X22.8694 Y-32.5253
G01 Z-0.6000
G01 Z0
G00 Z2.0000
G01 Z-1.2000
G01 Z0
G00 Z2.0000
G01 Z-1.6500
G01 Z0
G00 Z2.0000
G00 X12.2160 Y-38.1387
G01 Z-0.6000
G01 Z0
G00 Z2.0000
G01 Z-1.2000
G01 Z0
G00 Z2.0000
G01 Z-1.6500
G01 Z0
G00 Z2.0000
G00 X15.2300 Y-31.2668
G01 Z-0.6000
G01 Z0
G00 Z2.0000
G01 Z-1.2000
G01 Z0
G00 Z2.0000
G01 Z-1.6500
G01 Z0
G00 Z2.0000
G00 X12.9593 Y-29.2220
G01 Z-0.6000
G01 Z0
G00 Z2.0000
G01 Z-1.2000
G01 Z0
G00 Z2.0000
G01 Z-1.6500
G01 Z0
G00 Z2.0000
G00 X5.5903 Y-26.1727
G01 Z-0.6000
G01 Z0
G00 Z2.0000
G01 Z-1.2000
G01 Z0
G00 Z2.0000
G01 Z-1.6500
G01 Z0
G00 Z2.0000
G00 X9.1438 Y-20.8736
G01 Z-0.6000
G01 Z0
G00 Z2.0000
G01 Z-1.2000
G01 Z0
G00 Z2.0000
G01 Z-1.6500
G01 Z0
G00 Z2.0000
G00 X6.6067 Y-12.9593
G01 Z-0.6000
G01 Z0
G00 Z2.0000
G01 Z-1.2000
G01 Z0
G00 Z2.0000
G01 Z-1.6500
G01 Z0
G00 Z2.0000
G00 X15.2463 Y-5.3362
G01 Z-0.6000
G01 Z0
G00 Z2.0000
G01 Z-1.2000
G01 Z0
G00 Z2.0000
G01 Z-1.6500
G01 Z0
G00 Z2.0000
G00 X17.0250 Y-9.6560
G01 Z-0.6000
G01 Z0
G00 Z2.0000
G01 Z-1.2000
G01 Z0
G00 Z2.0000
G01 Z-1.6500
G01 Z0
G00 Z2.0000
G00 X13.7216 Y-12.9593
G01 Z-0.6000
G01 Z0
G00 Z2.0000
G01 Z-1.2000
G01 Z0
G00 Z2.0000
G01 Z-1.6500
G01 Z0
G00 Z2.0000
G00 X11.4347 Y-18.0414
G01 Z-0.6000
G01 Z0
G00 Z2.0000
G01 Z-1.2000
G01 Z0
G00 Z2.0000
G01 Z-1.6500
G01 Z0
G00 Z2.0000
G00 X14.2298 Y-23.1235
G01 Z-0.6000
G01 Z0
G00 Z2.0000
G01 Z-1.2000
G01 Z0
G00 Z2.0000
G01 Z-1.6500
G01 Z0
G00 Z2.0000
G00 X17.7873 Y-21.8530
G01 Z-0.6000
G01 Z0
G00 Z2.0000
G01 Z-1.2000
G01 Z0
G00 Z2.0000
G01 Z-1.6500
G01 Z0
G00 Z2.0000
G00 X24.6481 Y-22.1071
G01 Z-0.6000
G01 Z0
G00 Z2.0000
G01 Z-1.2000
G01 Z0
G00 Z2.0000
G01 Z-1.6500
G01 Z0
G00 Z2.0000
G00 X21.9845 Y-15.3688
G01 Z-0.6000
G01 Z0
G00 Z2.0000
G01 Z-1.2000
G01 Z0
G00 Z2.0000
G01 Z-1.6500
G01 Z0
G00 Z2.0000
G00 X27.9515 Y-14.4839
G01 Z-0.6000
G01 Z0
G00 Z2.0000
G01 Z-1.2000
G01 Z0
G00 Z2.0000
G01 Z-1.6500
G01 Z0
G00 Z2.0000
G00 X29.0905 Y-9.8170
G01 Z-0.6000
G01 Z0
G00 Z2.0000
G01 Z-1.2000
G01 Z0
G00 Z2.0000
G01 Z-1.6500
G01 Z0
G00 Z2.0000
G00 X34.5582 Y-15.7545
G01 Z-0.6000
G01 Z0
G00 Z2.0000
G01 Z-1.2000
G01 Z0
G00 Z2.0000
G01 Z-1.6500
G01 Z0
G00 Z2.0000
M05
G00 Z35.00


